!!!OTL: WEINT MIT MIR IHR NAECHTLICH STILLEN HAINE
!!!ARE: Europa, Mitteleuropa, Deutschland, Lahn - Kreis, Dill - Kreis
!!!SCT: B0140
!!!YEM: Copyright 1995, estate of Helmut Schaffrath.
**kern
*ICvox
*Ivox
*M4/4
*k[f#]
*G:
{8cc
8b
=1
4.a
16b
16a
8g
8f#
8e
8d
=2
4b
4g
4r}
{8cc
8b
=3
4.a
16b
16a
8g
8f#
8e
8d
=4
4b
4g
4r}
{8g
8f#
=5
4.e
8f#
8g
8g
8a
8a
=6
2d
4r}
{8d
8f#
=7
4.a
8a
8g
8f#
8e
8d
=8
4g
8b
8dd
4dd}
{8d
8f#
=9
4.a
8a
8g
8f#
8e
8d
=10
4g
8b
8dd
4dd}
{8cc
8b
=11
8a
8a
8cc
8cc
4b
4a
=12
2.dd}
{8cc
8b
=13
8a
8a
8cc
8cc
4b
4a
=14
2g
4r}
==
!!!AGN: Ballade, Romanze
!!!ONB: ESAC (Essen Associative Code) Database: BOEHME
!!!AMT: simple quadruple
!!!AIN: vox
!!!EED: Helmut Schaffrath
!!!EEV: 1.0
*-
